angular/src/assets/icons/tour.svg

<?xml version="1.0" ?><svg height="32px" version="1.1" viewBox="0 0 32 32" width="32px" xmlns="http://www.w3.org/2000/svg" xmlns:sketch="http://www.bohemiancoding.com/sketch/ns" xmlns:xlink="http://www.w3.org/1999/xlink"><title/><desc/><defs/><g fill="none" fill-rule="evenodd" id="Page-1" stroke="none" stroke-width="1"><g fill="#157EFB" id="icon-64-compass"><path d="M16.5,29 C23.4035597,29 29,23.4035597 29,16.5 C29,9.59644029 23.4035597,4 16.5,4 C9.59644029,4 4,9.59644029 4,16.5 C4,23.4035597 9.59644029,29 16.5,29 L16.5,29 Z M16.5,28 C22.8512749,28 28,22.8512749 28,16.5 C28,10.1487251 22.8512749,5 16.5,5 C10.1487251,5 5,10.1487251 5,16.5 C5,22.8512749 10.1487251,28 16.5,28 L16.5,28 Z M16.5,27 C22.2989902,27 27,22.2989902 27,16.5 C27,10.7010098 22.2989902,6 16.5,6 C10.7010098,6 6,10.7010098 6,16.5 C6,22.2989902 10.7010098,27 16.5,27 L16.5,27 Z M18.267767,18.267767 C16.5000001,20.035534 9.78248558,23.2175144 9.78248558,23.2175144 C9.78248558,23.2175144 12.964466,16.5 14.732233,14.732233 C16.5,12.9644661 23.2175144,9.78248558 23.2175144,9.78248558 C23.2175144,9.78248558 20.0355338,16.4999999 18.267767,18.267767 L18.267767,18.267767 Z M16.5,7 C16.2238576,7 16,7.21505737 16,7.49047852 L16,10.5095215 C16,10.7804053 16.2319336,11 16.5,11 C16.7761424,11 17,10.7849426 17,10.5095215 L17,7.49047852 C17,7.21959471 16.7680664,7 16.5,7 L16.5,7 Z M26.043335,16.543335 C26.043335,16.2671926 25.8282776,16.043335 25.5528564,16.043335 L22.5338135,16.043335 C22.2629297,16.043335 22.043335,16.2752686 22.043335,16.543335 C22.043335,16.8194773 22.2583923,17.043335 22.5338135,17.043335 L25.5528564,17.043335 C25.8237402,17.043335 26.043335,16.8114014 26.043335,16.543335 L26.043335,16.543335 Z M16.5,26.0866699 C16.7761424,26.0866699 17,25.8716125 17,25.5961914 L17,22.5771484 C17,22.3062646 16.7680664,22.0866699 16.5,22.0866699 C16.2238576,22.0866699 16,22.3017273 16,22.5771484 L16,25.5961914 C16,25.8670752 16.2319336,26.0866699 16.5,26.0866699 L16.5,26.0866699 Z M6.95666504,16.543335 C6.95666504,16.8194773 7.17172241,17.043335 7.44714355,17.043335 L10.4661865,17.043335 C10.7370703,17.043335 10.956665,16.8114014 10.956665,16.543335 C10.956665,16.2671926 10.7416077,16.043335 10.4661865,16.043335 L7.44714355,16.043335 C7.17625975,16.043335 6.95666504,16.2752686 6.95666504,16.543335 L6.95666504,16.543335 Z M15.4254841,15.5 C14.3648239,16.5606602 11.9606598,21.0861447 11.9606598,21.0861447 C11.9606598,21.0861447 16.4861443,18.6819805 17.5468044,17.6213203 L15.4254841,15.5 L15.4254841,15.5 Z" id="compass"/></g></g></svg>

<?xml version="1.0" encoding="UTF-8" standalone="no"?>
<svg
   height="25"
   version="1.1"
   viewBox="0 0 25 25"
   width="25"
   id="svg215"
   sodipodi:docname="tour.svg"
   inkscape:version="1.1.1 (c3084ef, 2021-09-22)"
   xmlns:inkscape="http://www.inkscape.org/namespaces/inkscape"
   xmlns:sodipodi="http://sodipodi.sourceforge.net/DTD/sodipodi-0.dtd"
   xmlns="http://www.w3.org/2000/svg"
   xmlns:svg="http://www.w3.org/2000/svg">
  <sodipodi:namedview
     id="namedview217"
     pagecolor="#ffffff"
     bordercolor="#666666"
     borderopacity="1.0"
     inkscape:pageshadow="2"
     inkscape:pageopacity="0.0"
     inkscape:pagecheckerboard="0"
     showgrid="false"
     fit-margin-top="0"
     fit-margin-left="0"
     fit-margin-right="0"
     fit-margin-bottom="0"
     inkscape:zoom="28.03125"
     inkscape:cx="0.76700111"
     inkscape:cy="12.004459"
     inkscape:window-width="1383"
     inkscape:window-height="1081"
     inkscape:window-x="0"
     inkscape:window-y="25"
     inkscape:window-maximized="0"
     inkscape:current-layer="svg215" />
  <title
     id="title206" />
  <desc
     id="desc208" />
  <defs
     id="defs210" />
  <g
     fill="none"
     fill-rule="evenodd"
     id="Page-1"
     stroke="none"
     stroke-width="1"
     transform="translate(-4,-4)">
    <g
       fill="#157efb"
       id="icon-64-compass">
      <path
         d="M 16.5,29 C 23.40356,29 29,23.40356 29,16.5 29,9.5964403 23.40356,4 16.5,4 9.5964403,4 4,9.5964403 4,16.5 4,23.40356 9.5964403,29 16.5,29 Z m 0,-1 C 22.851275,28 28,22.851275 28,16.5 28,10.148725 22.851275,5 16.5,5 10.148725,5 5,10.148725 5,16.5 5,22.851275 10.148725,28 16.5,28 Z m 0,-1 C 22.29899,27 27,22.29899 27,16.5 27,10.70101 22.29899,6 16.5,6 10.70101,6 6,10.70101 6,16.5 6,22.29899 10.70101,27 16.5,27 Z m 1.767767,-8.732233 C 16.5,20.035534 9.7824856,23.217514 9.7824856,23.217514 c 0,0 3.1819804,-6.717514 4.9497474,-8.485281 1.767767,-1.767767 8.485281,-4.9497474 8.485281,-4.9497474 0,0 -3.18198,6.7175144 -4.949747,8.4852814 z M 16.5,7 C 16.223858,7 16,7.2150574 16,7.4904785 V 10.509522 C 16,10.780405 16.231934,11 16.5,11 16.776142,11 17,10.784943 17,10.509522 V 7.4904785 C 17,7.2195947 16.768066,7 16.5,7 Z m 9.543335,9.543335 c 0,-0.276142 -0.215057,-0.5 -0.490479,-0.5 h -3.019043 c -0.270883,0 -0.490478,0.231934 -0.490478,0.5 0,0.276142 0.215057,0.5 0.490478,0.5 h 3.019043 c 0.270884,0 0.490479,-0.231934 0.490479,-0.5 z M 16.5,26.08667 c 0.276142,0 0.5,-0.215058 0.5,-0.490479 v -3.019043 c 0,-0.270883 -0.231934,-0.490478 -0.5,-0.490478 -0.276142,0 -0.5,0.215057 -0.5,0.490478 v 3.019043 c 0,0.270884 0.231934,0.490479 0.5,0.490479 z M 6.956665,16.543335 c 0,0.276142 0.2150574,0.5 0.4904785,0.5 h 3.0190425 c 0.270884,0 0.490479,-0.231934 0.490479,-0.5 0,-0.276142 -0.215057,-0.5 -0.490479,-0.5 H 7.4471435 c -0.2708838,0 -0.4904785,0.231934 -0.4904785,0.5 z M 15.425484,15.5 c -1.06066,1.06066 -3.464824,5.586145 -3.464824,5.586145 0,0 4.525484,-2.404164 5.586144,-3.464825 z"
         id="compass" />
    </g>
  </g>
</svg>
